Newaita-dark/.DP/16/smartphonedisconnected.svg

<svg xmlns="http://www.w3.org/2000/svg" xmlns:xlink="http://www.w3.org/1999/xlink" width="16px" height="16px" viewBox="0 0 16 16" version="1.1">
<g id="surface1">
<path style=" stroke:none;fill-rule:nonzero;fill:rgb(93.333334%,93.333334%,93.333334%);fill-opacity:0.392157;" d="M 4.300781 2.109375 C 3.933594 2.109375 3.636719 2.40625 3.636719 2.769531 L 3.636719 13.355469 C 3.636719 13.722656 3.933594 14.015625 4.300781 14.015625 L 11.578125 14.015625 C 11.941406 14.015625 12.238281 13.722656 12.238281 13.355469 L 12.238281 2.769531 C 12.238281 2.40625 11.941406 2.109375 11.578125 2.109375 Z M 5.292969 3.433594 L 10.585938 3.433594 C 10.769531 3.433594 10.914062 3.582031 10.914062 3.761719 L 10.914062 11.371094 C 10.914062 11.554688 10.769531 11.703125 10.585938 11.703125 L 5.292969 11.703125 C 5.109375 11.703125 4.960938 11.554688 4.960938 11.371094 L 4.960938 3.761719 C 4.960938 3.582031 5.109375 3.433594 5.292969 3.433594 Z M 6.945312 12.363281 L 8.929688 12.363281 C 9.113281 12.363281 9.261719 12.511719 9.261719 12.695312 L 9.261719 13.023438 C 9.261719 13.207031 9.113281 13.355469 8.929688 13.355469 L 6.945312 13.355469 C 6.761719 13.355469 6.613281 13.207031 6.613281 13.023438 L 6.613281 12.695312 C 6.613281 12.511719 6.761719 12.363281 6.945312 12.363281 Z M 6.945312 12.363281 "/>
</g>
</svg>

<svg xmlns="http://www.w3.org/2000/svg" width="16pt" height="16pt" viewBox="0 0 16 16"><path d="M4.3 2.11a.663.663 0 0 0-.663.66v10.585c0 .368.297.66.664.66h7.277a.66.66 0 0 0 .66-.66V2.77a.662.662 0 0 0-.66-.66zm.993 1.324h5.293c.184 0 .328.148.328.328v7.61a.328.328 0 0 1-.328.331H5.293a.332.332 0 0 1-.332-.332v-7.61a.33.33 0 0 1 .332-.327zm1.652 8.93H8.93c.183 0 .332.148.332.331v.328a.332.332 0 0 1-.332.332H6.945a.332.332 0 0 1-.332-.332v-.328c0-.183.149-.332.332-.332zm0 0" fill="#bdbdbd" fill-opacity=".392"/></svg>
